X: 17559
T: History Man, The
R: barndance
M: 4/4
K: Gmajor
B/c/B/A/|:G3A BAGA|BG d2 de/d/BA|G2 GA BAGA|BGdB AB/A/GF|G3A BAGA|BGd2 de/d/Bd|
e3f edBG|A2zB AGE/F/G|(3B2c2B2 AGE/F/G|AGAB AGE/F/G|1 A6 B/c/B/A/:|2 A3A AGAB||
|:c3d efg2|ga g/f/e d GB/c/d|efg2 gagf|e6 Bd|
efg2 f2ed|(3B2c2B2A B/A/GF|GAB A2 B/A/GF|1 G3A AGAB:|2 G6||

